X:1
T:Title
%%score { ( 1 2 5 ) | ( 3 4 ) }
L:1/8
M:4/4
K:F
V:1 treble nm="Grand Piano"
V:2 treble 
V:5 treble 
V:3 bass 
V:4 bass 
V:1
 z4 z2[Q:1/4=100] z G | A2 AB c2 d2 | c4 z4 | z4 z2 .[GB]2 |[M:3/4] [FA]4 z2 |[M:1/4] AB | %6
[M:4/4] c2 Ac [Af]2 [Dce][Bd] | z4 z2 A2 | G2 c2 =Bc [=B,Fd]2 |[M:3/4] c6 |[M:1/4] [Fc] z | %11
[M:4/4] A2 A2 A2 AB | z4 z2 .d2 | [CEB]2 .[CGc]2 F- [Fc]2 [CF] |[M:3/4] [EG]6 |[M:1/4] AB | %16
[M:4/4] c2 c2 c2 f2 | [Fd]2 [^Fd]2 [Gd]2 .[DGc]2 | [CFA]2 [Fc]2 .[Dc]2 [B,EG]2 |[M:3/4] [A,F]6 |] %20
V:2
 z4 z2 F2 | x8 | z2 z B A2 [EG][FA] | [GB]2 [FA][GB] [Bd]cC-[CFA] |[M:3/4] C4- [CG]2 |[M:1/4] x2 | %6
[M:4/4] x8 | [FAc]4 A2 z _E | x8 |[M:3/4] [CE]2 GF E2 |[M:1/4] C-[CGB] |[M:4/4] x8 | %12
 [FAc]2 [FAc]4 F-[CFc] | z4 .[CA]2 z2 |[M:3/4] x6 |[M:1/4] x2 |[M:4/4] x8 | x8 | x8 |[M:3/4] x6 |] %20
V:3
 z4 z2 A,B, | [F,CF]2 [CF]-[G,CF] [A,CF]2 [B,F]2 | C4[K:bass] z4 | [C,C]2 [C,C]2 z AE,F, | %4
[M:3/4] z2 z2 E2 |[M:1/4] [F,C]2 |[M:4/4] [F,A,F]2 [F,F]-[F,A,F] [F,C]2 z E | %7
 F,4 [F,CF]2 .[^F,CD]2 | z4 .D2[K:bass] z2 |[M:3/4] z2 B,A, G,2 |[M:1/4] D,E, | %11
[M:4/4][K:treble] [F,CF]2 [F,CF]2 [F,CF]2 FG | F,2 F,4 B,A, | G,2 z[K:treble] B[K:bass] z A,2 A,, | %14
[M:3/4] [C,C]6 |[M:1/4] [F,F]2 |[M:4/4][K:treble] [F,A,F]2 [G,B,E]2 [A,CF]2[K:bass] [A,,CF]2 | %17
 [B,,B,]2 [D,A,]2 [G,B,]2 z[K:treble] B | C,2 [C,A,]2 z[K:treble] B[K:bass] C,2 |[M:3/4] F,6 |] %20
V:4
 z4 z2 F,2 | z2 .F,2 z4 | [A,F]2[K:bass] G,2 [F,CF]2 [C,C]2 | z4 [C,C]2 z2 |[M:3/4] C,6 | %5
[M:1/4] z G, |[M:4/4] z2 .C2 z2 B,,2 | x8 | [G,CE]2 [G,EG]2 [G,F]-[G,CF][K:bass] G,,2 | %9
[M:3/4] C,6 |[M:1/4] x2 |[M:4/4][K:treble] z4 z2 [F,C]2 | x8 | z2 E,2[K:treble][K:bass] F,4 | %14
[M:3/4] x6 |[M:1/4] z G, |[M:4/4][K:treble] x6[K:bass] x2 | z4 z2 B,,2[K:treble] | %18
 z4 [C,G,]2[K:treble][K:bass] z2 |[M:3/4] x6 |] %20
V:5
 x8 | x8 | z2 E2 z4 | x8 |[M:3/4] x6 |[M:1/4] x2 |[M:4/4] x8 | x8 | x8 |[M:3/4] x6 |[M:1/4] x2 | %11
[M:4/4] x8 | x8 | x8 |[M:3/4] x6 |[M:1/4] x2 |[M:4/4] x8 | x8 | x8 |[M:3/4] x6 |] %20

